P3
40 20
255
255 255 255 255 255 255 255 255 255 255 255 255 255 255 255 229 229 227 191 191 189 202 202 200 198 198 198 208 208 208 202 202 202 194 194 194 199 199 199 187 187 187 225 225 225 220 220 220 207 207 207 195 195 195 222 222 222 203 203 203 198 198 198 196 196 196 190 190 190 212 212 212 202 202 202 199 199 199 203 203 203 211 211 211 201 201 201 218 218 218 199 199 199 204 204 204 211 211 211 195 195 195 214 214 214 194 194 194 196 196 196 229 229 229 195 195 195 201 201 201
255 255 255 255 255 255 255 255 255 255 255 255 255 255 255 253 253 252 250 250 248 252 252 250 252 252 252 254 254 254 254 254 254 253 253 253 245 245 245 253 253 253 254 254 254 254 254 254 254 254 254 249 249 249 253 253 253 253 253 253 254 254 254 254 254 254 254 254 254 254 254 254 254 254 254 254 254 254 254 254 254 254 254 254 254 254 254 254 254 254 254 254 254 254 254 254 254 254 254 254 254 254 254 254 254 254 254 254 253 253 253 254 254 254 254 254 254
255 255 255 255 255 255 255 255 255 255 255 255 255 255 255 216 216 215 212 212 211 190 190 189 196 196 196 233 233 233 255 255 255 255 255 255 255 255 255 255 255 255 255 255 255 255 255 255 255 255 255 255 255 255 255 255 255 255 255 255 255 255 255 255 255 255 255 255 255 255 255 255 255 255 255 255 255 255 255 255 255 255 255 255 255 255 255 255 255 255 255 255 255 255 255 255 255 255 255 255 255 255 255 255 255 255 255 255 255 255 255 255 255 255 255 255 255 255 255
255 255 255 255 255 255 255 255 255 255 255 255 255 255 255 249 249 249 245 245 245 245 245 245 245 245 245 249 249 249 254 254 254 251 251 251 255 255 255 255 255 255 254 254 254 251 251 251 255 255 255 252 252 252 254 254 254 254 254 254 251 251 251 254 254 254 255 255 255 255 255 255 251 251 251 254 254 254 255 255 255 255 255 255 255 255 255 255 255 255 255 255 255 255 255 255 255 255 255 255 255 255 255 255 255 255 255 255 255 255 255 255 255 255 255 255 255 255 255 255 255 255 255 255 255
255 255 255 255 255 255 255 255 255 255 255 255 255 255 255 253 253 253 207 207 207 197 197 197 209 209 209 190 190 190 242 242 242 195 195 195 196 196 196 178 178 178 234 234 234 200 200 200 184 184 184 231 231 231 206 206 206 244 244 244 190 190 190 191 191 191 184 184 184 241 241 241 197 197 197 189 189 189 253 253 253 255 255 255 255 255 255 255 255 255 255 255 255 255 255 255 255 255 255 255 255 255 255 255 255 255 255 255 255 255 255 255 255 255 255 255 255 255 255 255 255
255 255 255 255 255 255 255 255 255 255 255 255 255 255 255 254 254 254 252 252 252 253 253 253 254 254 254 248 248 248 252 252 252 253 253 253 253 253 253 248 248 248 253 253 253 248 248 248 248 248 248 254 254 254 253 253 253 253 253 253 253 253 253 251 251 251 250 250 250 252 252 252 248 248 248 247 247 247 253 253 253 254 254 254 255 255 255 255 255 255 254 254 254 255 255 255 255 255 255 255 255 255 255 255 255 255 255 255 255 255 255 255 255 255 255 255 255 255 255 255
255 255 255 255 255 255 255 255 255 255 255 255 255 255 255 254 254 254 175 175 175 136 136 136 141 141 141 144 144 144 145 145 145 148 148 148 149 149 149 149 149 149 150 150 150 152 152 152 152 152 152 153 153 153 155 155 155 157 157 157 158 158 158 160 160 160 161 161 161 162 162 162 162 162 162 164 164 164 165 165 165 167 167 167 170 170 170 174 174 174 177 177 177 179 179 179 180 180 180 184 184 184 184 184 184 189 189 189 191 191 191 191 191 191 194 194 194 196 196 196
255 255 255 255 255 255 255 255 255 255 255 255 255 255 255 255 255 255 171 171 171 131 131 131 137 137 137 139 139 139 143 143 143 146 146 146 146 146 146 148 148 148 149 149 149 151 151 151 149 149 149 149 149 149 154 154 154 155 155 155 156 156 156 156 156 156 160 160 160 160 160 160 160 160 160 161 161 161 162 162 162 164 164 164 168 168 168 173 173 173 173 173 173 178 178 178 178 178 178 181 181 181 183 183 183 186 186 186 189 189 189 191 191 191 190 190 190 193 193 193
255 255 255 255 255 255 255 255 255 255 255 255 255 255 255 255 255 255 186 186 186 157 157 157 165 165 165 168 168 168 171 171 171 174 174 174 175 175 175 176 176 176 177 177 177 178 178 178 178 178 178 177 177 177 179 179 179 182 182 182 183 183 183 182 182 182 185 185 185 186 186 186 186 186 186 186 186 186 188 188 188 190 190 190 193 193 193 198 198 198 200 200 200 205 205 205 207 207 207 206 206 206 206 206 206 208 208 208 211 211 211 215 215 215 213 213 213 210 210 210
255 255 255 255 255 255 255 255 255 255 255 255 255 255 255 255 255 255 207 207 207 188 188 188 195 195 195 198 198 198 201 201 201 202 202 202 205 205 205 205 205 205 206 206 206 207 207 207 206 206 206 206 206 206 208 208 208 211 211 211 213 213 213 211 211 211 211 211 211 212 212 212 215 215 215 218 218 218 222 222 222 223 223 223 224 224 224 225 225 225 218 218 218 202 202 202 197 197 197 197 197 197 221 221 221 224 224 224 208 208 208 193 193 193 179 179 179 166 166 166
255 255 255 255 255 255 255 255 255 255 255 255 255 255 255 255 255 255 227 227 227 217 217 217 224 224 224 229 229 229 225 225 225 222 222 222 229 229 229 230 230 230 232 232 232 232 232 232 232 232 232 232 232 232 232 232 232 233 233 233 226 226 226 214 214 214 177 177 177 161 161 161 143 143 143 136 136 136 120 120 120 110 110 110 82 82 82 56 56 56 28 28 28 22 22 22 24 24 24 26 26 26 32 32 32 29 29 29 21 21 21 23 23 23 22 22 22 23 23 23
255 255 255 255 255 255 255 255 255 255 255 255 255 255 255 254 254 254 220 220 220 180 180 180 109 109 109 81 81 81 46 46 46 30 30 30 43 43 43 42 42 42 50 50 50 52 52 52 54 54 54 59 59 59 47 47 47 43 43 43 27 27 27 23 23 23 21 21 21 25 25 25 26 26 26 30 30 30 34 34 34 38 38 38 47 47 47 63 63 63 58 58 58 71 71 71 90 90 90 69 69 69 58 58 58 52 52 52 50 50 50 58 58 58 66 66 66 66 66 66
255 255 255 255 255 255 255 255 255 255 255 255 255 255 255 255 255 255 104 104 104 33 33 33 40 40 40 46 46 46 50 50 50 55 55 55 55 55 55 51 51 51 46 46 46 45 45 45 44 44 44 49 49 49 50 50 50 50 50 50 50 50 50 55 55 55 62 62 62 66 66 66 65 65 65 69 69 69 72 72 72 75 75 75 85 85 85 115 115 115 126 126 126 127 127 127 131 131 131 132 132 132 135 135 135 126 126 126 109 109 109 131 131 131 124 124 124 113 113 113
255 255 255 255 255 255 255 255 255 255 255 255 255 255 255 255 255 255 129 129 129 74 74 74 84 84 84 90 90 90 99 99 99 102 102 102 102 102 102 95 95 95 86 86 86 85 85 85 85 85 85 89 89 89 94 94 94 96 96 96 101 101 101 100 100 100 101 101 101 105 105 105 97 97 97 114 114 114 131 131 131 138 138 138 133 133 133 123 123 123 112 112 112 121 121 121 123 123 123 123 123 123 85 85 85 80 80 80 107 107 107 129 129 129 133 133 133 111 111 111
255 255 255 255 255 255 255 255 255 255 255 255 255 255 255 255 255 255 149 149 149 118 118 118 122 122 122 129 129 129 146 146 146 148 148 148 157 157 157 143 143 143 134 134 134 137 137 137 136 136 136 138 138 138 139 139 139 141 141 141 145 145 145 151 151 151 149 149 149 140 140 140 149 149 149 153 153 153 134 134 134 128 128 128 129 129 129 132 132 132 135 135 135 142 142 142 135 135 135 122 122 122 127 127 127 138 138 138 127 127 127 120 120 120 119 119 119 128 128 128
255 255 255 255 255 255 255 255 255 255 255 255 255 255 255 254 254 254 167 167 167 126 126 126 146 146 146 135 135 135 124 124 124 141 141 141 168 168 168 178 178 178 177 177 177 187 187 187 192 192 192 197 197 197 196 196 196 188 188 188 169 169 169 172 172 172 176 176 176 167 167 167 166 166 166 159 159 159 141 141 141 142 142 142 128 128 128 119 119 119 133 133 133 131 131 131 147 147 147 136 136 136 129 129 129 144 144 144 149 149 149 131 131 131 109 109 109 129 129 129
255 255 255 255 255 255 255 255 255 255 255 255 255 255 255 254 254 254 152 152 152 118 118 118 115 115 115 126 126 126 145 145 145 137 137 137 150 150 150 187 187 187 210 210 210 194 194 194 165 165 165 150 150 150 162 162 162 152 152 152 162 162 162 149 149 149 137 137 137 149 149 149 140 140 140 142 142 142 117 117 117 105 105 105 118 118 118 101 101 101 97 97 97 124 124 124 139 139 139 130 130 130 141 141 141 169 169 169 161 161 161 139 139 139 152 152 152 127 127 127
255 255 255 255 255 255 255 255 255 255 255 255 255 255 255 255 255 255 182 182 182 133 133 133 91 91 91 138 138 138 143 143 143 141 141 141 180 180 180 150 150 150 88 88 88 100 100 100 107 107 107 112 112 112 117 117 117 114 114 114 109 109 109 95 95 95 95 95 95 108 108 108 125 125 125 156 156 156 112 112 112 91 91 91 126 126 126 112 112 112 133 133 133 161 161 161 185 185 185 182 182 182 188 188 188 207 207 207 199 199 199 194 194 194 203 203 203 184 184 184
255 255 255 255 255 255 255 255 255 255 255 255 255 255 255 255 255 255 189 189 189 158 158 158 151 151 151 140 140 140 156 156 156 158 158 158 125 125 125 117 117 117 150 150 150 123 123 123 155 155 155 109 109 109 102 102 102 73 73 73 80 80 80 122 122 122 163 163 163 168 168 168 171 171 171 147 147 147 149 149 149 184 184 184 191 191 191 158 158 158 156 156 156 166 166 166 136 136 136 172 172 172 184 184 184 180 180 180 178 178 178 182 182 182 190 190 190 188 188 188
255 255 255 255 255 255 255 255 255 255 255 255 255 255 255 255 255 255 159 159 159 151 151 151 158 158 158 164 164 164 180 180 180 174 174 174 124 124 124 113 113 113 119 119 119 106 106 106 104 104 104 69 69 69 90 90 90 92 92 92 131 131 131 139 139 139 145 145 145 154 154 154 154 154 154 159 159 159 171 171 171 176 176 176 173 173 173 171 171 171 174 174 174 171 171 171 175 175 175 180 180 180 185 185 185 173 173 173 160 160 160 179 179 179 189 189 189 193 193 193
